X: 683
T: Jenny on the Railroad
B: jims roots
M:C|
L:1/8
Q: 1/4=100
K:A
V:1 
|:xAB || "A"cABA cABA | cAEF "G"=G2A=c | BdA=c B=GAG  | "A"EAAB A2AB |
cABA cABA | cAEF "G"=G2 ef | =gfed cBAF | "A"EAABA2 :|
|: A2 ||ABcd ef=ge | "G"=gedB =G2ef | =gfed cBAF | "A"EAAB A2 :|
|: a4 || abaf afaf | afdB "G"=g2ga | b=gdg bgag | "A"ea3 aba=g |
ea2b aba=g | afdB "G"=gfea | =gfed cBAF | "A"EAAB A2 |]
% abcbook-tune_id 6298c25d684615d2bd025a20


% abcbook-boost 0
% abcbook-tablature 
% abcbook-transpose 
% abcbook-lastupdated 1654178399142
% abcbook-soundfonts 
% abcbook-repeats 1


